X: 1
T: Dva p\^ati na djasno
O: Bulgaria
M: 6/8
L: 1/8
P: Play I+(AABCC)x3
Z: 2011 John Chambers <jc:trillian.mit.edu>
S: handwritten MS by Patrick Yakono
K: D
"^Intro (no chords)"\
|: [A2F2][^G^E] [A2F2][BG] | [A3F3] [F3D3] | [G2E2][FD] [E2C2][GE] | [F2D2] [D2A,2] :|
"A"|: "D"[A2F2][^G^E] [A2F2][BG] | [A3F3] [F3D3] | [F2D2][EC] [F2D2][GE] | [F3D3] [D3A,3] :|
"B"|| "A"[A3E3] [E3C3] | "D"[F3D3] [D2A,2] | "A"[A3E3] [E3C3] | "D"[F3D3] [D3A,3] ||
%%text faster:
M: 2/4
L: 1/8
"C"|: "D"[DA,][DA,] "Em"[EB,][EB,] | "A"[E2C2] [A2E2] | "D"[DA,][DA,] "Em"[EB,][EB,] | "A"[E2C2] [E2C2] :|
